X: 40
T: Le corps s'en va
N: Derived from Bus3036-Le_corps_sen_va.krn
C: Antoine Busnoys
%%abc-version 2.0
%%abcx-abcm2ps-target-version 5.9.1 (29 Sep 2008)
%%abc-creator hum2abc beta
%%abcx-conversion-date 2019/02/16 20:26:07
%%abc-edited-by Jesse Rodin
%%abc-edited-by Chris Gage 02-12-2015
%%abcx-initial-encoding-date 2015/02/20/
%%humdrum-veritas 1215614549
%%humdrum-veritas-data 492476347
%%linebreak <none>
%%barnumbers 0
L: 1/4
M: 2/1
Q: 1/2=120
V: 1 clef=treble
V: 2 clef=bass
V: 3 clef=bass
K: C
[V:1] z8 | 
[V:2] D,6C,_B,, | 
[V:3] D,8 | 
[V:1] z8 | 
[V:2] C,4D,4- | 
[V:3] E,4F,4- | 
[V:1] D6CB, | 
[V:2] D,2E,2F,2G,2 | 
[V:3] F,2E,2D,2E,2 | 
[V:1] C4D4- | 
[V:2] E,4D,4 | 
[V:3] A,,4B,,2D,2- | 
[V:1] D2E2F2G2 | 
[V:2] z4D,4 | 
[V:3] D,2C,2B,,2G,,2 | 
[V:1] E4D4 | 
[V:2] C,3B,,/A,,/B,,4 | 
[V:3] A,,3B,,/C,/D,2F,2 | 
[V:1] E4F3E | 
[V:2] C,4D,4 | 
[V:3] E,4D,4 | 
[V:1] C8 | 
[V:2] E,2F,2E,2A,2- | 
[V:3] z4A,,4- | 
[V:1] z4G4 | 
[V:2] A,2G,F,E,4 | 
[V:3] A,,2B,,2C,2B,,C, | 
[V:1] F4E4 | 
[V:2] A,4G,4 | 
[V:3] D,4E,2C,2 | 
[V:1] D2D4^C2 | 
[V:2] F,2D,2E,4 | 
[V:3] D,2B,,2A,,4 | 
[V:1] D8 | 
[V:2] D,8- | 
[V:3] A,4F,4- | 
[V:1] z4F4 | 
[V:2] D,8 | 
[V:3] F,2G,2A,4- | 
[V:1] F4G4 | 
[V:2] z4_B,,4 | 
[V:3] A,2G,A,_B,4 | 
[V:1] E4D4- | 
[V:2] C,4D,4 | 
[V:3] G,4F,2G,2 | 
[V:1] D2C2B,4 | 
[V:2] D,4E,4 | 
[V:3] A,4G,3F, | 
[V:1] A,2D4C2 | 
[V:2] F,4E,4 | 
[V:3] D,4z2A,,2 | 
[V:1] D2CDE2F2 | 
[V:2] D,2F,2G,2A,2- | 
[V:3] B,,2D,2C,2A,,2 | 
[V:1] E2DCB,4 | 
[V:2] A,2F,2G,4 | 
[V:3] C,2D,2E,4 | 
[V:1] A,8 | 
[V:2] z4A,4 | 
[V:3] A,,8- | 
[V:1] z4E4 | 
[V:2] A,4A,4 | 
[V:3] A,,8 | 
[V:1] E4F4 | 
[V:2] A,4A,3G, | 
[V:3] z4D,4 | 
[V:1] G6FE | 
[V:2] E,4E,4 | 
[V:3] C,4C,4 | 
[V:1] D4C4 | 
[V:2] F,8 | 
[V:3] _B,,4F,,4 | 
[V:1] z4F4- | 
[V:2] E,4D,4 | 
[V:3] G,,2A,,2_B,,2C,2 | 
[V:1] F2G2A4 | 
[V:2] z4D4 | 
[V:3] D,2E,2F,3E, | 
[V:1] G4F4 | 
[V:2] E4D2D2- | 
[V:3] C,4D,3C, | 
[V:1] E4z2D2 | 
[V:2] D2^C2D4- | 
[V:3] A,,4D,2F,2 | 
[V:1] F2G2A2B2 | 
[V:2] D2CB,C2DC | 
[V:3] z2E,2A,2G,2 | 
[V:1] c2BA^G3^F | 
[V:2] A,4B,4 | 
[V:3] F,4E,4 | 
[V:1] A8- | 
[V:2] A,8 | 
[V:3] A,,8- | 
[V:1] A8 | 
[V:2] z8 | 
[V:3] A,,8- | 
[V:1] z8 | 
[V:2] C4C4 | 
[V:3] A,,8 | 
[V:1] c4c4 | 
[V:2] A,4F,4 | 
[V:3] z8 | 
[V:1] A4F4 | 
[V:2] z4_B,4 | 
[V:3] A,,4_B,,3C, | 
[V:1] z4_B4 | 
[V:2] A,3F,G,4 | 
[V:3] D,2F,2E,3D, | 
[V:1] A3FG4 | 
[V:2] F,4E,4 | 
[V:3] F,4z2C,2 | 
[V:1] F4E4 | 
[V:2] A,4G,4 | 
[V:3] D,2F,2C,4 | 
[V:1] D2E3FG2- | 
[V:2] F,2G,3A,_B,2- | 
[V:3] F,,2C,4_B,,2- | 
[V:1] GFEDE3D | 
[V:2] B,A,G,F,G,4 | 
[V:3] B,,2C,D,C,4 | 
[V:1] F8 | 
[V:2] F,8- | 
[V:3] F,,8- | 
[V:1] z4A4 | 
[V:2] F,8 | 
[V:3] F,,8 | 
[V:1] G4F4 | 
[V:2] z4A,4 | 
[V:3] C,4D,4 | 
[V:1] E4D2A2- | 
[V:2] G,4F,4- | 
[V:3] z2E,2F,2D,2 | 
[V:1] A2G2F2ED | 
[V:2] F,2E,2D,4 | 
[V:3] F,2C,2D,C,B,,2 | 
[V:1] C4D4 | 
[V:2] E,4D,2B,,2 | 
[V:3] A,,4B,,4 | 
[V:1] E4F4 | 
[V:2] C,2A,,4B,,2 | 
[V:3] A,,4z4 | 
[V:1] E4D3E | 
[V:2] C,2B,,C,D,2A,2- | 
[V:3] A,,4B,,2C,2 | 
[V:1] F2EDE2DC | 
[V:2] A,2G,F,G,2F,E, | 
[V:3] D,4C,4 | 
[V:1] D2^CB,C4 | 
[V:2] F,2E,D,E,4 | 
[V:3] B,,4A,,4 | 
[V:1] D8 |]  
[V:2] D,8 |]  
[V:3] A,8 |]  



